X:384
T:Woman of the House
Z: id:dc-reel-355
M:C
L:1/8
K:G Major
E|DBBA B3A|GBB2 eBdB|A2GB A2Bd|eBB2 gfed|!
DBBA B3A|GBB2 eBdB|GABG A2GA|BGAG EFG:|!
e|f3d eBB2|eBgB eBB2|f3d edBd|eaa^g aba=g|!
f3d eBB2|g3e dBB2|GABG A2GA|BGAG EFG:|!

